image/icon3.svg

<svg fill="none" height="23" viewBox="0 0 24 23" width="24" xmlns="http://www.w3.org/2000/svg"><g fill="#1e1e1e"><path d="m12 4.12208-1.0751-1.10508c-2.52655-2.5969-7.15368-1.70046-8.82436 1.56226-.72388 1.41369-.93082 3.40493.16185 5.92074h-1.617026c-3.192404-8.54572 6.246386-13.24469 11.091136-8.78538.0894.08233.1773.16778.2635.25639.0862-.0886.1741-.17405.2635-.25637 4.8447-4.45934 14.2835.23963 11.0911 8.78536h-1.617c1.0927-2.51581.8857-4.50705.1619-5.92074-1.6707-3.26272-6.2979-4.15916-8.8244-1.56226z"/><path d="m3.31809 15h1.97231c1.59919 1.7749 3.78659 3.6868 6.7096 5.6919 2.923-2.0051 5.1104-3.917 6.7096-5.6919h1.9723c-1.8979 2.3497-4.7094 4.8751-8.6819 7.5-3.97248-2.6249-6.78398-5.1503-8.68191-7.5z"/><path d="m15.6964 4.97146c-.1192-.29778-.4144-.48686-.7347-.47048s-.5947.23461-.6828.54298l-2.3973 8.39054-2.18524-5.46304c-.10344-.2586-.34167-.43858-.61869-.46743-.27702-.02884-.54721.0982-.70171.32995l-2.77735 4.16602h-4.84861c-.414214 0-.75.3358-.75.75s.335786.75.75.75h5.25c.25076 0 .48494-.1253.62404-.334l2.20912-3.31366 2.47044 6.17616c.1192.2978.4144.4869.7347.4705s.5947-.2346.6828-.543l2.3973-8.39048 2.1852 5.46298c.1139.2848.3897.4715.6964.4715h5.25c.4142 0 .75-.3358.75-.75s-.3358-.75-.75-.75h-4.7422z"/></g></svg>

<svg width="24" height="23" viewBox="0 0 24 23" fill="none" xmlns="http://www.w3.org/2000/svg">
<path d="M12 4.12208L10.9249 3.017C8.39835 0.4201 3.77122 1.31654 2.10054 4.57926C1.37666 5.99295 1.16972 7.98419 2.26239 10.5H0.645364C-2.54704 1.95428 6.89175 -2.74469 11.7365 1.71462C11.8259 1.79695 11.9138 1.8824 12 1.97101C12.0862 1.88241 12.1741 1.79696 12.2635 1.71464C17.1082 -2.7447 26.547 1.95427 23.3546 10.5H21.7376C22.8303 7.98419 22.6233 5.99295 21.8995 4.57926C20.2288 1.31654 15.6016 0.4201 13.0751 3.017L12 4.12208Z" fill="#1E1E1E"/>
<path d="M3.31809 15H5.2904C6.88959 16.7749 9.07699 18.6868 12 20.6919C14.923 18.6868 17.1104 16.7749 18.7096 15H20.6819C18.784 17.3497 15.9725 19.8751 12 22.5C8.02752 19.8751 5.21602 17.3497 3.31809 15Z" fill="#1E1E1E"/>
<path d="M15.6964 4.97146C15.5772 4.67368 15.282 4.4846 14.9617 4.50098C14.6414 4.51736 14.367 4.73559 14.2789 5.04396L11.8816 13.4345L9.69636 7.97146C9.59292 7.71286 9.35469 7.53288 9.07767 7.50403C8.80065 7.47519 8.53046 7.60223 8.37596 7.83398L5.59861 12H0.75C0.335786 12 0 12.3358 0 12.75C0 13.1642 0.335786 13.5 0.75 13.5H6C6.25076 13.5 6.48494 13.3747 6.62404 13.166L8.83316 9.85234L11.3036 16.0285C11.4228 16.3263 11.718 16.5154 12.0383 16.499C12.3586 16.4826 12.633 16.2644 12.7211 15.956L15.1184 7.56552L17.3036 13.0285C17.4175 13.3133 17.6933 13.5 18 13.5H23.25C23.6642 13.5 24 13.1642 24 12.75C24 12.3358 23.6642 12 23.25 12H18.5078L15.6964 4.97146Z" fill="#1E1E1E"/>
</svg>
